X:18538
T:Watson's Class
C:Niel Gow
M:C
L:1/8
K:EMin
G/F/|EBGB              EB        e>^c    |d>B       A/d/A/G/  G/F/E/D/ D
G/F/|ABGB              EB        e>b     |a/g/f/e/  g/f/e/^d/ eE       E :|
g/f/|e>fg>e            g/a/b/g/  e>f     |d>fad               f/g/e/f/ df |
     e>fge             g/a/b/g/  ea      |g/a/b/g/  f/g/a/f/  ge       e>B|
     e>fge             g/a/b/g/  e>f     |d>fad               f/g/a/f/ da |
     g/a/b/g/ f/g/a/f/ e/f/g/e/ ^d/e/f/d/|B/^c/d/B/ e/c/d/F/  GE       E |]


